X:1
T:Hence, Care, thou art too cruel - Weelkes
T:James Gibb editions
T:#
%%score [ 1 { 2 | 3 } 4 5 ]
L:1/8
M:2/2
K:F
V:1 treble nm="Soprano"
V:2 treble nm="Alto I" snm="A"
V:3 treble 
V:4 treble-8 nm="Tenor" snm="T"
V:5 bass nm="Bass" snm="B"
V:1
"^Hence, Care, thou art too cruel""^Thomas Weelkes\n(c.1576-1623)" z8 x4 |!f! d8 | _e8 | %3
w: |Hence,|Care,|
 !courtesy!=e8- | e4 d4- | d4 ^c4- | x8 |[M:2/2] c4 (=B4- | B4 ^A4) | =B8 | =B8- | B4 A4- | %12
w: thou|* art|* too||* cru\-||el,|thou|* art|
 A4 G4- | G4 ^F4 | G4 g4 | f8- | f8 | d8 | z8 | z8 |!p! g8 | g4 f4 | _e4 d4 | c4 B4 | A4 G4 | d8- | %26
w: * too|* cru-|el, too|cru\-||el,|||Come,|mu- sic,|sick man's|jew- el,|sick man's|jew\-|
 d8 |[Q:1/4=120] =B2!mp! d2 dc_BA |[Q:1/4=120][Q:1/4=120][Q:1/4=120] G2 _e2 edcB | A4 z2 g2 | %30
w: |el. Fa la la la la|la, fa la la la la|la, fa|
 gf_ed cBAG | ^F2 G4 F2 | G8- | G8 | z4!mf! A4 | =B4 c4 | d4 _e4- | e4 d4- | d4 c4- | c4 =B4 | %40
w: la la la la la la la la|la la la|la||His|force had|well nigh|* slain|* me,|* slain|
 c4 c4- | c2 d2 e4- | e4 (d4- | d4 ^c4) | d2!f! d2 d2 d2 | f3 e d3 c | B2 A2 ^F2 A2- | A2 G4 ^F2 | %48
w: force had|* well nigh|* slain||me, But thou must|now sus- tain me,|but thou must now|* sus- tain|
 G8 | z8 | z2 e2 e2 e2 | f3 e (d3 c) | B2 A2 ^F2 G2- | G2 ^F2 z2 G2 | G2 G2 g3 f | %55
w: me,||but thou must|now sus- tain *|me, now sus- tain|* me. Fa|la la la la|
[Q:1/4=118] _e3[Q:1/4=116] d[Q:1/4=115] c2[Q:1/4=113] e2 |[Q:1/4=109] d8- |[Q:1/4=103] d8 | %58
w: la la la la|la||
[Q:1/4=100] !fermata!=B8 |] %59
w: la.|
V:2
 z8 x4 |!f! G8 | G8 | z4 ^G4 | A8- | A4 E4 | x8 |[M:2/2] ^F8 | ^F8 | ^D4 E4- | E4 ^D4 | E8 | D8- | %13
w: |Hence,|Care,|thou|art|* too||cru-|el,|thou art|* too|cru-|el,|
 D8 | z4 G4 | A4 B4 | (c4 F4) | F8 | z8 |!p! B8 | B4 A4 | G8 | G4 F4 | _E8- | E8 | D4 (G4- | %26
w: |thou|art too|cru\- *|el,||Come,|mu- sic,|come,|mu- sic,|sick||man's jew\-|
 G4 ^F4) | G4 z2!mp! G2 | GF_ED EF G2 | ^FG A2 G2 D2 | _E3 F G2 E2 | D8 | D8- | D4!mf! _E4 | %34
w: |el. Fa|la la la la la la la,|fa la la la la,|fa la la la|la|la.|* His|
 G4 F4- | F4 _E4 | D4 G4- | G4 F4- | F4 _E4 | D4 G4- | G4 A4- | A4 G4- | G4 F4 | E4 A4 | %44
w: force had|* well|nigh slain|* me,|* slain|me, his|* force|* had|* well|nigh slain|
 A4 z2!f! A2 | A2 A2 (B3 A/G/ | F3) E D4 | D4 z2 D2 | D2 D2 B3 A | (G2 F2) E2 D2- | D2 (^C=B, C4) | %51
w: me, But|thou must now * *|* sus- tain|me, but|thou must now sus-|tain * me, sus\-|* tain * *|
 D2 D2 D2 D2 | F3 E D4 | D4 z4 | z2 G2 G2 G2 | c3 B A3 G | ^F4 G4- | G2 ^FE F4 | !fermata!G8 |] %59
w: me, but thou must|now sus- tain|me.|Fa la la|la la la la|la, fa|* la la la|la.|
V:3
 z8 x4 |!f! D8 | C8 | z4 =B,4 | ^F8 | E8- | x8 |[M:2/2] E4 D4 | ^C8 | =B,8- | B,8 | z4 C4- | %12
w: |Hence,|Care,|thou|art|too,||* too|cru-|el,||thou|
 C4 B,2 B,2 | A,8 | G,4 _E4- | E4 D2 D2 | C8 | D4!p! F4 | F4 _E4 | D4 C4 | D8 | G,8 | _E8 | %23
w: * art too|cru-|~~el, thou|* art too|cru-|el, Come,|mu- sic,|sick man's|jew-|el,|come,|
 _E4 D4 | C4 B,4 | (A,4 G,4) | D8 |!mp! D2 DC B,A, G,2 | C2 C2- CD _E2 | z2 D2 DCB,A, | %30
w: mu- sic,|sick man's|jew\- *|el.|Fa la la la la la,|fa la * la la|fa la la la la|
 G,2 GF _EDCB, | A,2 G,2 A,4 | =B,8 | z4!mf! G,4 | =B,4 D4- | D4 G4 | G8 | z4 (D4- | D4 _E2 F2) | %39
w: la, fa la la la la la|la la la|la.|His|force had|* well|nigh|slain||
 G4 D4 | E4 F4- | F4 E4- | E4 A4- | A2 (G2 E4) | ^F8 | z8 | z2!f! A,2 A,2 A,2 | B,3 B, A,4 | %48
w: me, his|force had|* well|* nigh|* slain *|me,||But thou must|now sus- tain|
 D4 z4 | z8 | z2 E2 E2 E2 | A3 G F3 E | D3 (C/B,/) (A,2 B,2) | A,2 D2 D2 D2 | G3 F _E3 D | C4 z4 | %56
w: me,||but thou must|now sus- tain me,|now sus\- * tain *|me. Fa la la|la la la la|la,|
 D8 | D8 | !fermata!D8 |] %59
w: fa|la|la.|
V:4
 z12 |!f! =B8 | G8 | z4 e4 | A8 | z4 A4 |[M:2/2][K:treble-8] (^A4 =B4) | ^c4 ^F4 | G8 | ^F8 | E8 | %11
w: |Hence,|Care,|thou|art|too|cru\- *|el, hence,|Care,|thou|art|
 ^F4 G4 | A2 A2 d4- | d4 c4- | c4 B4- | B4 A4 | B4!p! d4 | d4 c4 | B4 z4 | z8 | B8 | c8 | G8 | %23
w: too, too|cru- el, thou|* art|* too|* cru-|el, Come,|mu- sic,|come,||come,|mu-|sic,|
 c8- | c4 B4 | A8 | G2!mp! GA Bc d2 | G2 c2 cBAG | d2 dc BA G2 | B2 c2 G2 c2- | c2 B2 A4 | %31
w: sick|* man's|jew-|el. Fa la la la la|la, fa la la la la|la la la la la la,|fa la la la|* la la|
 G4!mf! G4 | =B4 c4 | d8- | d4 c4- | c4 =B4 | c4 A4 | G8 | z4 d4 | c8 | A4 =B4 | ^c4 (d4 | e8) | %43
w: la. His|force had|well|* nigh|* slain|me, slain|me,|his|force|had well|nigh slain||
 d4 z2!f! d2 | d2 d2 f3 e | (d3 c/B/) A4 | ^F2 (G2 A4) | G2 B2 B2 B2 | d3 c (B3 A | G8) | A8 | %51
w: me, But|thou must now sus-|tain * * me,|sus- tain *|me, but thou must|now sus- tain *||me.|
 z4 z2 D2 | A2 A2 B3 A | G4 G4- | G4 c4- | c4 B4 | A8 | !fermata!G8 | x8 |] %59
w: Fa|la la la la|la la,|* fa|* la|la|la.||
V:5
!f! G,8- x4 | G,8 | C,8 | z4 E,4 | ^F,6 G,2 | A,8 | x8 |[M:2/2] ^F,8 | ^F,8 | =B,,8- | B,,8 | C,8 | %12
w: Hence,||Care,|thou|art too|cru-||el,|hence,|Care,||thou|
 D,8- | D,8 | _E,8 | F,8- | F,8 | B,,8 |!p! B,8 | B,4 A,4 | G,4 F,4 | (_E,4 D,4) | C,8 | C,8 | %24
w: art||too|cru\-||el,|Come,|mu- sic,|sick man's|jew\- *|el,|sick|
 C,8 | D,8- | D,8 | G,,4!mp! G,2 G,F, | _E,D, C,4 C,2 | D,4 G,2 G,F, | _E,D, C,4 C,2 | D,8 | %32
w: man's|jew\-||el. Fa la la|la la la la|la, fa la la|la la la la|la|
 G,,8- | G,,8 | z4!mf! D,4 | G,8- | G,8 | C,4 D,4 | (=B,,4 C,4) | G,8 | C,4 F,4- | F,4 G,4 | A,8 | %43
w: la.||His|force||had well|nigh *|slain|me, had|* well|nigh|
 A,8 | D,8- | D,8 | D,8 | D,8 | z2!f! G,2 G,2 G,2 | B,3 A, (G,3 F, | E,8) | D,8- | D,4 D,4 | %53
w: slain|me,||||But thou must|now sus- tain *||me.|* Fa|
 D,2 D,2 G,3 F, | _E,3 D, C,4 | C,8 | D,8- | D,8 | !fermata!G,8 |] %59
w: la la la la|la la la|la|la||la.|

